korla/status/symbolic/network-cellular-3g-symbolic.svg

<svg style="clip-rule:evenodd;fill-rule:evenodd;stroke-linejoin:round;stroke-miterlimit:2" version="1.1" viewBox="0 0 16 16" xmlns="http://www.w3.org/2000/svg">
 <path d="M2,3L6,3C6.666,3.02 7.168,3.84 6.877,4.44L5.502,7.221C5.856,7.331 6.25,7.41 6.469,7.66C6.802,8.02 7,8.47 7,9L7,11C7,12.11 6.093,13 5,13L2,13L2,11L5,11L5,9L4,9C3.334,8.98 2.835,8.161 3.127,7.561L4.377,5L2,5L2,3Z" style="fill:rgb(223,223,223)"/>
 <path d="m10 3h2c2 0 2 2 2 2v1h-2v-1h-2v6h2v-2h-1v-2h3v4s0 2-2 2h-2s-2 0-2-2v-6c0-2 2-2 2-2z" style="fill:rgb(223,223,223)"/>
</svg>

<svg xmlns="http://www.w3.org/2000/svg" width="16" height="16" version="1.1">
 <path style="fill:#dfdfdf" d="M 2 1 C 0.892 1 0 1.892 0 3 L 0 13 C 0 14.108 0.892 15 2 15 L 14 15 C 15.108 15 16 14.108 16 13 L 16 3 C 16 1.892 15.108 1 14 1 L 2 1 z M 2 3 L 6 3 C 6.666 3.02 7.168 3.8395 6.877 4.4395 L 5.502 7.2207 C 5.856 7.3307 6.2497 7.4102 6.4688 7.6602 C 6.8017 8.0202 7 8.47 7 9 L 7 11 C 7 12.11 6.093 13 5 13 L 2 13 L 2 11 L 5 11 L 5 9 L 4 9 C 3.334 8.98 2.835 8.1605 3.127 7.5605 L 4.377 5 L 2 5 L 2 3 z M 10 3 L 12 3 C 14 3 14 5 14 5 L 14 6 L 12 6 L 12 5 L 10 5 L 10 11 L 12 11 L 12 9 L 11 9 L 11 7 L 14 7 L 14 11 C 14 11 14 13 12 13 L 10 13 C 10 13 8 13 8 11 L 8 5 C 8 3 10 3 10 3 z"/>
</svg>
